static/img/svg/plus.svg

<svg xmlns="http://www.w3.org/2000/svg" width="24" height="24" viewBox="0 0 24 24"><path d="M13 5h-2v6H5v2h6v6h2v-6h6v-2h-6z"/></svg>

<svg xmlns="http://www.w3.org/2000/svg" width="24" height="24" viewBox="0 0 24 24"><path d="M13 5L11 5 11 11 5 11 5 13 11 13 11 19 13 19 13 13 19 13 19 11 13 11z"/></svg>
